src/sharedassets/phone_dark/accept_video.svg

<?xml version="1.0" encoding="UTF-8" standalone="no"?>
<svg
   xmlns:dc="http://purl.org/dc/elements/1.1/"
   xmlns:cc="http://creativecommons.org/ns#"
   xmlns:rdf="http://www.w3.org/1999/02/22-rdf-syntax-ns#"
   xmlns:svg="http://www.w3.org/2000/svg"
   xmlns="http://www.w3.org/2000/svg"
   xmlns:sodipodi="http://sodipodi.sourceforge.net/DTD/sodipodi-0.dtd"
   xmlns:inkscape="http://www.inkscape.org/namespaces/inkscape"
   fill="#000000"
   height="24"
   viewBox="0 0 24 24"
   width="24"
   id="svg2"
   version="1.1"
   inkscape:version="0.91 r13725"
   sodipodi:docname="accept_video.svg">
  <metadata
     id="metadata12">
    <rdf:RDF>
      <cc:Work
         rdf:about="">
        <dc:format>image/svg+xml</dc:format>
        <dc:type
           rdf:resource="http://purl.org/dc/dcmitype/StillImage" />
        <dc:title></dc:title>
      </cc:Work>
    </rdf:RDF>
  </metadata>
  <defs
     id="defs10" />
  <sodipodi:namedview
     pagecolor="#ffffff"
     bordercolor="#666666"
     borderopacity="1"
     objecttolerance="10"
     gridtolerance="10"
     guidetolerance="10"
     inkscape:pageopacity="0"
     inkscape:pageshadow="2"
     inkscape:window-width="1859"
     inkscape:window-height="1001"
     id="namedview8"
     showgrid="false"
     inkscape:zoom="19.67"
     inkscape:cx="30.331415"
     inkscape:cy="3.2443478"
     inkscape:window-x="47"
     inkscape:window-y="26"
     inkscape:window-maximized="0"
     inkscape:current-layer="svg2" />
  <path
     d="m 0.10169492,3.7627119 24.00000008,0 0,24.0000001 -24.00000008,0 z m 0,0 24.00000008,0 0,24.0000001 -24.00000008,0 z"
     id="path4"
     inkscape:connector-curvature="0"
     style="fill:none" />
  <path
     style="fill:#545454;fill-opacity:1"
     d="m 1.965362,10.335024 c -0.7003778,0 -1.27341402,0.573037 -1.27341402,1.273415 l 0,9.561396 c 0,0.700378 0.57303622,1.273414 1.27341402,1.273414 l 15.544235,0 c 0.619734,0.02724 0.997134,-0.344085 1.005175,-0.810807 l 0,-3.260425 5.098631,5.098632 0,-13.5996658 -5.093656,5.0936558 0,-3.3562 c 0,-0.700378 -0.573038,-1.273415 -1.273415,-1.273415 l -14.3507809,0 z"
     id="path6"
     inkscape:connector-curvature="0"
     sodipodi:nodetypes="ssssccccccsccs" />
  <path
     inkscape:connector-curvature="0"
     style="color:#bebebe;font-style:normal;font-variant:normal;font-weight:normal;font-stretch:normal;font-size:medium;line-height:normal;font-family:'Bitstream Vera Sans';-inkscape-font-specification:'Bitstream Vera Sans';text-indent:0;text-align:start;text-decoration:none;text-decoration-line:none;letter-spacing:normal;word-spacing:normal;text-transform:none;direction:ltr;block-progression:tb;writing-mode:lr-tb;text-anchor:start;display:inline;overflow:visible;visibility:visible;fill:#1aac36;fill-opacity:1;stroke:none;stroke-width:2;marker:none;enable-background:accumulate"
     d="m 6.7889219,8.5318321 1.703142,0 C 8.9295797,8.5318151 9.3920803,8.3107154 9.716185,7.9995885 l 2.182111,-2.1821118 2.182129,2.1821289 c 0.323662,0.3115526 0.786605,0.5322265 1.224172,0.5321414 l 1.703125,0 1.7e-5,-1.703125 c 0,-0.5270321 -0.153792,-0.940653 -0.479089,-1.2773097 L 11.898262,1.0273865 7.2679088,5.5513123 C 6.9427311,5.8880542 6.7888878,6.301641 6.7888878,6.828656 l 0,1.703125 z"
     id="rect3217-6-2-2-4-2-3-8"
     sodipodi:nodetypes="ccccccccccccc" />
</svg>

<svg xmlns="http://www.w3.org/2000/svg" height="24" width="24"><path d="M.102 3.763h24v24h-24zm0 0h24v24h-24z" fill="none"/><path d="M1.965 10.335c-.7 0-1.273.573-1.273 1.273v9.562c0 .7.573 1.273 1.273 1.273H17.51c.62.027.997-.344 1.005-.81v-3.261l5.098 5.099V9.87l-5.093 5.094v-3.357c0-.7-.573-1.273-1.274-1.273H2.896z" fill="#545454"/><path style="line-height:normal;-inkscape-font-specification:'Bitstream Vera Sans';text-indent:0;text-align:start;text-decoration-line:none;text-transform:none;block-progression:tb;marker:none" d="M6.789 8.532h1.703c.438 0 .9-.221 1.224-.532l2.182-2.183L14.08 8c.324.311.787.532 1.225.532h1.703V6.829c0-.527-.154-.941-.48-1.278l-4.63-4.524-4.63 4.524c-.325.337-.48.75-.48 1.278v1.703z" color="#bebebe" font-weight="400" font-family="Bitstream Vera Sans" overflow="visible" fill="#1aac36"/></svg>
